communes/5237.svg

<?xml version="1.0" encoding="UTF-8" standalone="no"?>
<!-- Created with Inkscape (http://www.inkscape.org/) -->

<svg
   xmlns:dc="http://purl.org/dc/elements/1.1/"
   xmlns:cc="http://creativecommons.org/ns#"
   xmlns:rdf="http://www.w3.org/1999/02/22-rdf-syntax-ns#"
   xmlns:svg="http://www.w3.org/2000/svg"
   xmlns="http://www.w3.org/2000/svg"
   xmlns:sodipodi="http://sodipodi.sourceforge.net/DTD/sodipodi-0.dtd"
   xmlns:inkscape="http://www.inkscape.org/namespaces/inkscape"
   version="1.0"
   width="208.86046"
   height="244.65999"
   id="svg2780"
   inkscape:version="0.92.4 (5da689c313, 2019-01-14)"
   sodipodi:docname="AltoMalcantone-blazon.svg">
  <metadata
     id="metadata27">
    <rdf:RDF>
      <cc:Work
         rdf:about="">
        <dc:format>image/svg+xml</dc:format>
        <dc:type
           rdf:resource="http://purl.org/dc/dcmitype/StillImage" />
        <dc:title></dc:title>
      </cc:Work>
    </rdf:RDF>
  </metadata>
  <sodipodi:namedview
     pagecolor="#ffffff"
     bordercolor="#666666"
     borderopacity="1"
     objecttolerance="10"
     gridtolerance="10"
     guidetolerance="10"
     inkscape:pageopacity="0"
     inkscape:pageshadow="2"
     inkscape:window-width="3259"
     inkscape:window-height="1417"
     id="namedview25"
     showgrid="false"
     inkscape:zoom="4"
     inkscape:cx="-8.0774851"
     inkscape:cy="142.89468"
     inkscape:window-x="-8"
     inkscape:window-y="-8"
     inkscape:window-maximized="1"
     inkscape:current-layer="svg2780"
     inkscape:measure-start="104.255,149.787"
     inkscape:measure-end="104.255,126.383"
     showguides="true"
     inkscape:object-paths="true"
     inkscape:snap-intersection-paths="true"
     inkscape:snap-global="true" />
  <defs
     id="defs2782" />
  <path
     inkscape:connector-curvature="0"
     style="fill:#1b63c6;fill-opacity:1;fill-rule:evenodd;stroke:#000000;stroke-width:1.99999988;stroke-linecap:butt;stroke-miterlimit:4;stroke-dashoffset:0;stroke-opacity:1"
     id="path4212"
     d="m 1,1 3.761095,158.00304 c 2.686489,112.85918 196.651755,112.85918 199.338255,0 L 207.86045,1 Z" />
  <path
     style="opacity:1;fill:#feeb00;fill-opacity:1;stroke:#000000;stroke-width:1;stroke-miterlimit:9;stroke-dasharray:none;stroke-dashoffset:4.57999992;stroke-opacity:1"
     d="m 31.75,178.65999 -1.25,-37.75 6.5,3.5 5.25,-23.25 6,3 3.25,-21 5.5,3.5 7.25,-24.000002 6.25,6 5.75,-24.5 4.25,4.75 14.25,-18.5 5,5.75 11.75,-14.75 5.75,4.75 9.25,-10.75 4,4.5 11.25,-6 4.5,5 8.5,-10 5.25,4.75 11.25,-8.75 4.5,3.75 16.5,-7.5 -5.5,14.25 5.25,3 -4.5,10.5 4.75,2.75 -8.5,14.25 4.5,4 -8,9.5 6.5,2.5 -9.5,13.25 4.75,4.75 -17.77445,17.205612 4.15425,3.71231 -18.03122,11.75565 3.35876,3.97748 -18.91511,11.04854 3.8007,3.97748 -28.37266,5.48008 5.12652,4.86135 -31.37786,0.88389 4.772971,7.33623 -23.688077,3.97748 1.59099,5.83363 z"
     id="path890"
     inkscape:connector-curvature="0" />
  <path
     style="opacity:1;fill:none;fill-opacity:1;stroke:#000000;stroke-width:2;stroke-miterlimit:9;stroke-dasharray:none;stroke-dashoffset:4.57999992;stroke-opacity:1"
     d="m 22.25,188.78499 c 3.539062,-3.84745 6.783001,-7.29288 9.82755,-10.42348"
     id="path892"
     inkscape:connector-curvature="0"
     sodipodi:nodetypes="cc" />
  <path
     style="opacity:1;fill:none;fill-opacity:1;stroke:#000000;stroke-width:1;stroke-miterlimit:9;stroke-dasharray:none;stroke-dashoffset:4.57999992;stroke-opacity:1"
     d="M 37.674138,172.74313 30.5,140.90999"
     id="path894"
     inkscape:connector-curvature="0"
     sodipodi:nodetypes="cc" />
  <path
     style="opacity:1;fill:none;fill-opacity:1;stroke:#000000;stroke-width:1;stroke-miterlimit:9;stroke-dasharray:none;stroke-dashoffset:4.57999992;stroke-opacity:1"
     d="M 48.272861,163.03547 42.25,121.15999"
     id="path896"
     inkscape:connector-curvature="0" />
  <path
     style="opacity:1;fill:none;fill-opacity:1;stroke:#000000;stroke-width:1;stroke-miterlimit:9;stroke-dasharray:none;stroke-dashoffset:4.57999992;stroke-opacity:1"
     d="M 60.304722,153.68935 51.5,103.15999"
     id="path898"
     inkscape:connector-curvature="0" />
  <path
     style="opacity:1;fill:none;fill-opacity:1;stroke:#000000;stroke-width:1;stroke-miterlimit:9;stroke-dasharray:none;stroke-dashoffset:4.57999992;stroke-opacity:1"
     d="M 72.539991,144.74091 64.25,82.659988"
     id="path900"
     inkscape:connector-curvature="0"
     sodipodi:nodetypes="cc" />
  <path
     style="opacity:1;fill:none;fill-opacity:1;stroke:#000000;stroke-width:1;stroke-miterlimit:9;stroke-dasharray:none;stroke-dashoffset:4.57999992;stroke-opacity:1"
     d="M 86.404613,133.76618 76.25,64.159988"
     id="path902"
     inkscape:connector-curvature="0"
     sodipodi:nodetypes="cc" />
  <path
     style="opacity:1;fill:none;fill-opacity:1;stroke:#000000;stroke-width:1;stroke-miterlimit:9;stroke-dasharray:none;stroke-dashoffset:4.57999992;stroke-opacity:1"
     d="M 99.990977,122.10261 94.75,50.409988"
     id="path904"
     inkscape:connector-curvature="0" />
  <path
     style="opacity:1;fill:none;fill-opacity:1;stroke:#000000;stroke-width:1;stroke-miterlimit:9;stroke-dasharray:none;stroke-dashoffset:4.57999992;stroke-opacity:1"
     d="M 114.92699,108.20548 111.5,41.409988"
     id="path906"
     inkscape:connector-curvature="0" />
  <path
     style="opacity:1;fill:none;fill-opacity:1;stroke:#000000;stroke-width:1;stroke-miterlimit:9;stroke-dasharray:none;stroke-dashoffset:4.57999992;stroke-opacity:1"
     d="M 128.24813,94.859321 126.5,35.409988"
     id="path908"
     inkscape:connector-curvature="0" />
  <path
     style="opacity:1;fill:none;fill-opacity:1;stroke:#000000;stroke-width:1;stroke-miterlimit:9;stroke-dasharray:none;stroke-dashoffset:4.57999992;stroke-opacity:1"
     d="M 143.78687,78.214233 141.75,33.909988"
     id="path912"
     inkscape:connector-curvature="0" />
  <path
     style="opacity:1;fill:none;fill-opacity:1;stroke:#000000;stroke-width:1;stroke-miterlimit:9;stroke-dasharray:none;stroke-dashoffset:4.57999992;stroke-opacity:1"
     d="M 156.90002,63.372837 154.75,28.909988"
     id="path914"
     inkscape:connector-curvature="0" />
  <path
     style="opacity:1;fill:none;fill-opacity:1;stroke:#000000;stroke-width:1;stroke-miterlimit:9;stroke-dasharray:none;stroke-dashoffset:4.57999992;stroke-opacity:1"
     d="M 169.82787,48.186942 171.25,24.909988"
     id="path916"
     inkscape:connector-curvature="0" />
  <path
     style="opacity:1;fill:none;fill-opacity:1;stroke:#000000;stroke-width:1;stroke-miterlimit:9;stroke-dasharray:none;stroke-dashoffset:4.57999992;stroke-opacity:1"
     d="M 173.02534,44.368499 192,38.409988"
     id="path918"
     inkscape:connector-curvature="0" />
  <path
     style="opacity:1;fill:none;fill-opacity:1;stroke:#000000;stroke-width:1;stroke-miterlimit:9;stroke-dasharray:none;stroke-dashoffset:4.57999992;stroke-opacity:1"
     d="M 161.145,58.438149 192.25,51.659988"
     id="path920"
     inkscape:connector-curvature="0"
     sodipodi:nodetypes="cc" />
  <path
     style="opacity:1;fill:none;fill-opacity:1;stroke:#000000;stroke-width:1;stroke-miterlimit:9;stroke-dasharray:none;stroke-dashoffset:4.57999992;stroke-opacity:1"
     d="M 149.81847,71.469171 188.25,69.909988"
     id="path922"
     inkscape:connector-curvature="0"
     sodipodi:nodetypes="cc" />
  <path
     style="opacity:1;fill:none;fill-opacity:1;stroke:#000000;stroke-width:1;stroke-miterlimit:9;stroke-dasharray:none;stroke-dashoffset:4.57999992;stroke-opacity:1"
     d="M 136.31955,86.351235 186.75,81.909988"
     id="path924"
     inkscape:connector-curvature="0" />
  <path
     style="opacity:1;fill:none;fill-opacity:1;stroke:#000000;stroke-width:1;stroke-miterlimit:9;stroke-dasharray:none;stroke-dashoffset:4.57999992;stroke-opacity:1"
     d="M 121.95567,101.27392 182,99.909988"
     id="path926"
     inkscape:connector-curvature="0" />
  <path
     style="opacity:1;fill:none;fill-opacity:1;stroke:#000000;stroke-width:1;stroke-miterlimit:9;stroke-dasharray:none;stroke-dashoffset:4.57999992;stroke-opacity:1"
     d="m 107.04808,115.67782 61.33172,5.15009"
     id="path928"
     inkscape:connector-curvature="0" />
  <path
     style="opacity:1;fill:none;fill-opacity:1;stroke:#000000;stroke-width:1;stroke-miterlimit:9;stroke-dasharray:none;stroke-dashoffset:4.57999992;stroke-opacity:1"
     d="m 153.70734,136.56104 -59.729823,-9.1825"
     id="path930"
     inkscape:connector-curvature="0" />
  <path
     style="opacity:1;fill:none;fill-opacity:1;stroke:#000000;stroke-width:1;stroke-miterlimit:9;stroke-dasharray:none;stroke-dashoffset:4.57999992;stroke-opacity:1"
     d="m 80.202744,138.78852 58.390186,12.79854"
     id="path932"
     inkscape:connector-curvature="0" />
  <path
     style="opacity:1;fill:none;fill-opacity:1;stroke:#000000;stroke-width:1;stroke-miterlimit:9;stroke-dasharray:none;stroke-dashoffset:4.57999992;stroke-opacity:1"
     d="m 63.501751,151.41404 51.845039,10.51445"
     id="path934"
     inkscape:connector-curvature="0" />
  <path
     style="opacity:1;fill:none;fill-opacity:1;stroke:#000000;stroke-width:1;stroke-miterlimit:9;stroke-dasharray:none;stroke-dashoffset:4.57999992;stroke-opacity:1"
     d="m 52.337041,159.6871 36.40486,10.46151"
     id="path936"
     inkscape:connector-curvature="0" />
  <path
     style="opacity:1;fill:none;fill-opacity:1;stroke:#000000;stroke-width:1;stroke-miterlimit:9;stroke-dasharray:none;stroke-dashoffset:4.57999992;stroke-opacity:1"
     d="M 66.644814,179.95972 40.841232,169.70206"
     id="path938"
     inkscape:connector-curvature="0" />
  <path
     style="opacity:1;fill:none;fill-opacity:1;stroke:#000000;stroke-width:1.00157475;stroke-miterlimit:9;stroke-dasharray:none;stroke-dashoffset:4.57999992;stroke-opacity:1"
     d="M 31.991666,178.44985 C 42.708379,167.42299 50.949573,160.29746 60.875,153.28499 116.17456,114.21499 153.90788,67.558214 192.25,21.159986"
     id="path892-2"
     inkscape:connector-curvature="0"
     sodipodi:nodetypes="csc" />
</svg>

<?xml version="1.0" encoding="UTF-8"?>
<svg version="1.0" viewBox="0 0 208.86 244.66" xmlns="http://www.w3.org/2000/svg" xmlns:cc="http://creativecommons.org/ns#" xmlns:dc="http://purl.org/dc/elements/1.1/" xmlns:rdf="http://www.w3.org/1999/02/22-rdf-syntax-ns#">
<metadata>
<rdf:RDF>
<cc:Work rdf:about="">
<dc:format>image/svg+xml</dc:format>
<dc:type rdf:resource="http://purl.org/dc/dcmitype/StillImage"/>
<dc:title/>
</cc:Work>
</rdf:RDF>
</metadata>
<path d="m1 1 3.7611 158c2.6865 112.86 196.65 112.86 199.34 0l3.7611-158z" fill="#1b63c6" fill-rule="evenodd" stroke="#000" stroke-width="2"/>
<path d="m31.75 178.66-1.25-37.75 6.5 3.5 5.25-23.25 6 3 3.25-21 5.5 3.5 7.25-24 6.25 6 5.75-24.5 4.25 4.75 14.25-18.5 5 5.75 11.75-14.75 5.75 4.75 9.25-10.75 4 4.5 11.25-6 4.5 5 8.5-10 5.25 4.75 11.25-8.75 4.5 3.75 16.5-7.5-5.5 14.25 5.25 3-4.5 10.5 4.75 2.75-8.5 14.25 4.5 4-8 9.5 6.5 2.5-9.5 13.25 4.75 4.75-17.774 17.206 4.1542 3.7123-18.031 11.756 3.3588 3.9775-18.915 11.049 3.8007 3.9775-28.373 5.4801 5.1265 4.8614-31.378 0.88389 4.773 7.3362-23.688 3.9775 1.591 5.8336z" fill="#feeb00" stroke="#000" stroke-dashoffset="4.58" stroke-miterlimit="9"/>
<path d="m22.25 188.78c3.5391-3.8474 6.783-7.2929 9.8276-10.423" fill="none" stroke="#000" stroke-dashoffset="4.58" stroke-miterlimit="9" stroke-width="2"/>
<path d="m37.674 172.74-7.1741-31.833" fill="none" stroke="#000" stroke-dashoffset="4.58" stroke-miterlimit="9"/>
<path d="m48.273 163.04-6.0229-41.875" fill="none" stroke="#000" stroke-dashoffset="4.58" stroke-miterlimit="9"/>
<path d="m60.305 153.69-8.8047-50.529" fill="none" stroke="#000" stroke-dashoffset="4.58" stroke-miterlimit="9"/>
<path d="m72.54 144.74-8.29-62.081" fill="none" stroke="#000" stroke-dashoffset="4.58" stroke-miterlimit="9"/>
<path d="m86.405 133.77-10.155-69.606" fill="none" stroke="#000" stroke-dashoffset="4.58" stroke-miterlimit="9"/>
<path d="m99.991 122.1-5.241-71.693" fill="none" stroke="#000" stroke-dashoffset="4.58" stroke-miterlimit="9"/>
<path d="m114.93 108.21-3.427-66.795" fill="none" stroke="#000" stroke-dashoffset="4.58" stroke-miterlimit="9"/>
<path d="m128.25 94.859-1.7481-59.449" fill="none" stroke="#000" stroke-dashoffset="4.58" stroke-miterlimit="9"/>
<path d="m143.79 78.214-2.0369-44.304" fill="none" stroke="#000" stroke-dashoffset="4.58" stroke-miterlimit="9"/>
<path d="m156.9 63.373-2.15-34.463" fill="none" stroke="#000" stroke-dashoffset="4.58" stroke-miterlimit="9"/>
<path d="m169.83 48.187 1.4221-23.277" fill="none" stroke="#000" stroke-dashoffset="4.58" stroke-miterlimit="9"/>
<path d="m173.03 44.368 18.975-5.9585" fill="none" stroke="#000" stroke-dashoffset="4.58" stroke-miterlimit="9"/>
<path d="m161.14 58.438 31.105-6.7782" fill="none" stroke="#000" stroke-dashoffset="4.58" stroke-miterlimit="9"/>
<path d="m149.82 71.469 38.432-1.5592" fill="none" stroke="#000" stroke-dashoffset="4.58" stroke-miterlimit="9"/>
<path d="m136.32 86.351 50.43-4.4412" fill="none" stroke="#000" stroke-dashoffset="4.58" stroke-miterlimit="9"/>
<path d="m121.96 101.27 60.044-1.3639" fill="none" stroke="#000" stroke-dashoffset="4.58" stroke-miterlimit="9"/>
<path d="m107.05 115.68 61.332 5.1501" fill="none" stroke="#000" stroke-dashoffset="4.58" stroke-miterlimit="9"/>
<path d="m153.71 136.56-59.73-9.1825" fill="none" stroke="#000" stroke-dashoffset="4.58" stroke-miterlimit="9"/>
<path d="m80.203 138.79 58.39 12.799" fill="none" stroke="#000" stroke-dashoffset="4.58" stroke-miterlimit="9"/>
<path d="m63.502 151.41 51.845 10.514" fill="none" stroke="#000" stroke-dashoffset="4.58" stroke-miterlimit="9"/>
<path d="m52.337 159.69 36.405 10.462" fill="none" stroke="#000" stroke-dashoffset="4.58" stroke-miterlimit="9"/>
<path d="m66.645 179.96-25.804-10.258" fill="none" stroke="#000" stroke-dashoffset="4.58" stroke-miterlimit="9"/>
<path d="m31.992 178.45c10.717-11.027 18.958-18.152 28.883-25.165 55.3-39.07 93.033-85.727 131.38-132.13" fill="none" stroke="#000" stroke-dashoffset="4.58" stroke-miterlimit="9" stroke-width="1.0016"/>
</svg>
